gray52.ti1
CTI1	

DESCRIPTOR	Argyll Calibration Target chart information 1
ORIGINATOR	Argyll targen
CREATED	Fri Nov 16 10:09:18 2007
KEYWORD	APPROX_WHITE_POINT
APPROX_WHITE_POINT	95.106486 100.000000 108.844025
KEYWORD	COLOR_REP
COLOR_REP	RGB
KEYWORD	WHITE_COLOR_PATCHES
WHITE_COLOR_PATCHES	4
KEYWORD	COMP_GREY_STEPS
COMP_GREY_STEPS	52
KEYWORD	MULTI_DIM_STEPS
MULTI_DIM_STEPS	2

NUMBER_OF_FIELDS	7					
BEGIN_DATA_FORMAT						
SAMPLE_ID	RGB_R	RGB_G	RGB_B	XYZ_X	XYZ_Y	XYZ_Z
END_DATA_FORMAT						

NUMBER_OF_SETS	65					
BEGIN_DATA						
1	100	100	100	95.106	100	108.84
2	100	100	100	95.106	100	108.84
3	100	100	100	95.106	100	108.84
4	100	100	100	95.106	100	108.84
5	0	0	0	1	1	1
6	0	0	0	1	1	1
7	0	0	0	1	1	1
8	0	0	0	1	1	1
9	1.9608	1.9608	1.9608	1.1428	1.1502	1.1637
10	3.9216	3.9216	3.9216	1.2856	1.3005	1.3273
11	5.8824	5.8824	5.8824	1.4495	1.4729	1.5152
12	7.8431	7.8431	7.8431	1.6583	1.6925	1.7544
13	9.8039	9.8039	9.8039	1.9148	1.9624	2.0484
14	11.765	11.765	11.765	2.2218	2.2853	2.4001
15	13.725	13.725	13.725	2.5817	2.6639	2.8126
16	15.686	15.686	15.686	2.9968	3.1007	3.2883
17	17.647	17.647	17.647	3.4695	3.5979	3.83
18	19.608	19.608	19.608	4.0016	4.1577	4.4398
19	21.569	21.569	21.569	4.5953	4.7822	5.1201
20	23.529	23.529	23.529	5.2523	5.4734	5.8731
21	25.49	25.49	25.49	5.9745	6.2332	6.7007
22	27.451	27.451	27.451	6.7637	7.0634	7.605
23	29.412	29.412	29.412	7.6213	7.9656	8.5879
24	31.373	31.373	31.373	8.5492	8.9418	9.6512
25	33.333	33.333	33.333	9.5488	9.9933	10.797
26	35.294	35.294	35.294	10.622	11.122	12.026
27	37.255	37.255	37.255	11.769	12.329	13.341
28	39.216	39.216	39.216	12.993	13.616	14.743
29	41.176	41.176	41.176	14.294	14.985	16.234
30	43.137	43.137	43.137	15.674	16.437	17.816
31	45.098	45.098	45.098	17.134	17.973	19.489
32	47.059	47.059	47.059	18.675	19.594	21.255
33	49.02	49.02	49.02	20.299	21.303	23.117
34	50.98	50.98	50.98	22.007	23.1	25.074
35	52.941	52.941	52.941	23.8	24.986	27.129
36	54.902	54.902	54.902	25.679	26.963	29.282
37	56.863	56.863	56.863	27.646	29.032	31.536
38	58.824	58.824	58.824	29.701	31.194	33.891
39	60.784	60.784	60.784	31.846	33.45	36.349
40	62.745	62.745	62.745	34.081	35.802	38.911
41	64.706	64.706	64.706	36.409	38.25	41.578
42	66.667	66.667	66.667	38.829	40.796	44.351
43	68.627	68.627	68.627	41.343	43.44	47.232
44	70.588	70.588	70.588	43.951	46.185	50.221
45	72.549	72.549	72.549	46.656	49.03	53.321
46	74.51	74.51	74.51	49.457	51.977	56.531
47	76.471	76.471	76.471	52.356	55.027	59.853
48	78.431	78.431	78.431	55.354	58.18	63.289
49	80.392	80.392	80.392	58.452	61.439	66.838
50	82.353	82.353	82.353	61.65	64.803	70.503
51	84.314	84.314	84.314	64.949	68.275	74.285
52	86.275	86.275	86.275	68.351	71.854	78.183
53	88.235	88.235	88.235	71.857	75.541	82.2
54	90.196	90.196	90.196	75.466	79.338	86.337
55	92.157	92.157	92.157	79.181	83.246	90.594
56	94.118	94.118	94.118	83.001	87.265	94.972
57	96.078	96.078	96.078	86.929	91.397	99.472
58	98.039	98.039	98.039	90.963	95.641	104.1
59	100	100	100	95.106	100	108.84
60	100	0	0	41.83	22.052	2.9132
61	0	100	0	36.405	71.801	12.802
62	100	100	0	77.235	92.853	14.715
63	0	0	100	18.871	8.1473	95.129
64	100	0	100	59.701	29.199	97.042
65	0	100	100	54.276	78.948	106.93
END_DATA						
CTI1						

DESCRIPTOR	Argyll Calibration Target chart information 1					
ORIGINATOR	Argyll targen					
KEYWORD	DENSITY_EXTREME_VALUES					
DENSITY_EXTREME_VALUES	8					
CREATED	16-Nov-07					

KEYWORD	INDEX					
NUMBER_OF_FIELDS	7					
BEGIN_DATA_FORMAT						
INDEX	RGB_R	RGB_G	RGB_B	XYZ_X	XYZ_Y	XYZ_Z
END_DATA_FORMAT						

NUMBER_OF_SETS	8					
BEGIN_DATA						
0	100	100	100	95.106	100	108.84
1	0	47.361	100	25.613	21.629	97.376
2	100	0	79.351	52.426	26.29	58.722
3	0	0	58.997	6.4858	3.194	29.894
4	100	66.659	0	56.059	50.505	7.6561
5	0	35.601	0	4.6856	8.3702	2.2286
6	84.444	0	0	28.843	15.356	2.3047
7	0	0	0	1	1	1
END_DATA						
CTI1						

DESCRIPTOR	Argyll Calibration Target chart information 1					
ORIGINATOR	Argyll targen					
KEYWORD	DEVICE_COMBINATION_VALUES					
DEVICE_COMBINATION_VALUES	9					
CREATED	16-Nov-07					

KEYWORD	INDEX					
NUMBER_OF_FIELDS	7					
BEGIN_DATA_FORMAT						
INDEX	RGB_R	RGB_G	RGB_B	XYZ_X	XYZ_Y	XYZ_Z
END_DATA_FORMAT						

NUMBER_OF_SETS	9					
BEGIN_DATA						
0	100	100	100	95.106	100	108.84
1	0	100	100	54.276	78.948	106.93
2	100	0	100	59.701	29.199	97.042
3	0	0	100	18.871	8.1473	95.129
4	100	100	0	77.235	92.853	14.715
5	0	100	0	36.405	71.801	12.802
6	100	0	0	41.83	22.052	2.9132
7	0	0	0	1	1	1
8	60	60	60	30.977	32.536	35.353
END_DATA						
