RGB_ramps161.ti1
CTI1	

DESCRIPTOR	Argyll Calibration Target chart information 1
ORIGINATOR	Argyll targen
CREATED	Sat May 05 17:31:39 2007
KEYWORD	APPROX_WHITE_POINT
APPROX_WHITE_POINT	95.106486 100.000000 108.844025
KEYWORD	COLOR_REP
COLOR_REP	RGB
KEYWORD	WHITE_COLOR_PATCHES
WHITE_COLOR_PATCHES	4
KEYWORD	MULTI_DIM_STEPS
MULTI_DIM_STEPS	2
KEYWORD	ERROR_OPTIMISED_PATCHES
ERROR_OPTIMISED_PATCHES	161

NUMBER_OF_FIELDS	4		
BEGIN_DATA_FORMAT			
SAMPLE_ID	RGB_R	RGB_G	RGB_B
END_DATA_FORMAT			

NUMBER_OF_SETS	161		
BEGIN_DATA			
1	100	100	100
2	100	100	100
3	100	100	100
4	100	100	100
5	0	0	0
6	0	0	0
7	0	0	0
8	0	0	0
9	100	0	0
10	98.03921569	0	0
11	96.07843137	0	0
12	94.11764706	0	0
13	92.15686275	0	0
14	90.19607843	0	0
15	88.23529412	0	0
16	86.2745098	0	0
17	84.31372549	0	0
18	82.35294118	0	0
19	80.39215686	0	0
20	78.43137255	0	0
21	76.47058824	0	0
22	74.50980392	0	0
23	72.54901961	0	0
24	70.58823529	0	0
25	68.62745098	0	0
26	66.66666667	0	0
27	64.70588235	0	0
28	62.74509804	0	0
29	60.78431373	0	0
30	58.82352941	0	0
31	56.8627451	0	0
32	54.90196078	0	0
33	52.94117647	0	0
34	50.98039216	0	0
35	49.01960784	0	0
36	47.05882353	0	0
37	45.09803922	0	0
38	43.1372549	0	0
39	41.17647059	0	0
40	39.21568627	0	0
41	37.25490196	0	0
42	35.29411765	0	0
43	33.33333333	0	0
44	31.37254902	0	0
45	29.41176471	0	0
46	27.45098039	0	0
47	25.49019608	0	0
48	23.52941176	0	0
49	21.56862745	0	0
50	19.60784314	0	0
51	17.64705882	0	0
52	15.68627451	0	0
53	13.7254902	0	0
54	11.76470588	0	0
55	9.803921569	0	0
56	7.843137255	0	0
57	5.882352941	0	0
58	3.921568627	0	0
59	1.960784314	0	0
60	0	100	0
61	0	98.03921569	0
62	0	96.07843137	0
63	0	94.11764706	0
64	0	92.15686275	0
65	0	90.19607843	0
66	0	88.23529412	0
67	0	86.2745098	0
68	0	84.31372549	0
69	0	82.35294118	0
70	0	80.39215686	0
71	0	78.43137255	0
72	0	76.47058824	0
73	0	74.50980392	0
74	0	72.54901961	0
75	0	70.58823529	0
76	0	68.62745098	0
77	0	66.66666667	0
78	0	64.70588235	0
79	0	62.74509804	0
80	0	60.78431373	0
81	0	58.82352941	0
82	0	56.8627451	0
83	0	54.90196078	0
84	0	52.94117647	0
85	0	50.98039216	0
86	0	49.01960784	0
87	0	47.05882353	0
88	0	45.09803922	0
89	0	43.1372549	0
90	0	41.17647059	0
91	0	39.21568627	0
92	0	37.25490196	0
93	0	35.29411765	0
94	0	33.33333333	0
95	0	31.37254902	0
96	0	29.41176471	0
97	0	27.45098039	0
98	0	25.49019608	0
99	0	23.52941176	0
100	0	21.56862745	0
101	0	19.60784314	0
102	0	17.64705882	0
103	0	15.68627451	0
104	0	13.7254902	0
105	0	11.76470588	0
106	0	9.803921569	0
107	0	7.843137255	0
108	0	5.882352941	0
109	0	3.921568627	0
110	0	1.960784314	0
111	0	0	100
112	0	0	98.03921569
113	0	0	96.07843137
114	0	0	94.11764706
115	0	0	92.15686275
116	0	0	90.19607843
117	0	0	88.23529412
118	0	0	86.2745098
119	0	0	84.31372549
120	0	0	82.35294118
121	0	0	80.39215686
122	0	0	78.43137255
123	0	0	76.47058824
124	0	0	74.50980392
125	0	0	72.54901961
126	0	0	70.58823529
127	0	0	68.62745098
128	0	0	66.66666667
129	0	0	64.70588235
130	0	0	62.74509804
131	0	0	60.78431373
132	0	0	58.82352941
133	0	0	56.8627451
134	0	0	54.90196078
135	0	0	52.94117647
136	0	0	50.98039216
137	0	0	49.01960784
138	0	0	47.05882353
139	0	0	45.09803922
140	0	0	43.1372549
141	0	0	41.17647059
142	0	0	39.21568627
143	0	0	37.25490196
144	0	0	35.29411765
145	0	0	33.33333333
146	0	0	31.37254902
147	0	0	29.41176471
148	0	0	27.45098039
149	0	0	25.49019608
150	0	0	23.52941176
151	0	0	21.56862745
152	0	0	19.60784314
153	0	0	17.64705882
154	0	0	15.68627451
155	0	0	13.7254902
156	0	0	11.76470588
157	0	0	9.803921569
158	0	0	7.843137255
159	0	0	5.882352941
160	0	0	3.921568627
161	0	0	1.960784314
END_DATA			
CTI1			

DESCRIPTOR	Argyll Calibration Target chart information 1		
ORIGINATOR	Argyll targen		
KEYWORD	DENSITY_EXTREME_VALUES		
DENSITY_EXTREME_VALUES	8		
CREATED	5-May-07		

KEYWORD	INDEX		
NUMBER_OF_FIELDS	4		
BEGIN_DATA_FORMAT			
INDEX	RGB_R	RGB_G	RGB_B
END_DATA_FORMAT			

NUMBER_OF_SETS	8		
BEGIN_DATA			
0	0	100	0
1	0	42.874	94.404
2	100	0	73.906
3	0	0	54.845
4	100	61.213	0
5	0	32.743	0
6	78.757	0	0
7	0	0	0
END_DATA			
